tenants/donaldduck/icons/envelop.svg

<svg fill="none" height="24" viewBox="0 0 24 24" width="24" xmlns="http://www.w3.org/2000/svg"><path d="m22 9.15909v9.02271c0 .5-.1749.928-.5246 1.2841s-.77.5341-1.2611.5341h-16.42859c-.49107 0-.91145-.178-1.26116-.5341-.3497-.3561-.52455-.7841-.52455-1.2841v-9.02271c.32738.37121.70312.70076 1.12723.98861 2.69345 1.8637 4.54241 3.1705 5.54688 3.9205.4241.3182.76823.5663 1.03236.7443.26414.178.61573.3598 1.05473.5455.4389.1856.8482.2784 1.2276.2784h.0224c.3794 0 .7887-.0928 1.2276-.2784.439-.1857.7906-.3675 1.0547-.5455.2642-.178.6083-.4261 1.0324-.7443 1.2649-.9318 3.1176-2.2387 5.558-3.9205.4241-.29543.7962-.62497 1.1161-.98861zm0-3.34091c0 .59849-.1823 1.17046-.5469 1.71591-.3646.54546-.8184 1.01136-1.3616 1.39773-2.7976 1.97728-4.5387 3.20838-5.2232 3.69318-.0744.053-.2325.1686-.4743.3466s-.4427.322-.6027.4318c-.16.1099-.3534.233-.5804.3693-.2269.1364-.4408.2387-.6417.3068-.2009.0682-.3869.1023-.558.1023h-.0224c-.1711 0-.3571-.0341-.558-.1023-.2009-.0681-.4148-.1704-.6417-.3068-.227-.1363-.4204-.2594-.5804-.3693-.16-.1098-.36086-.2538-.60267-.4318-.24182-.178-.39993-.2936-.47433-.3466-.67709-.4848-1.65179-1.1761-2.92411-2.0739-1.27232-.89769-2.03497-1.43746-2.28795-1.61928-.46131-.31818-.89657-.75568-1.3058-1.3125s-.61384-1.07387-.61384-1.55114c0-.59091.15439-1.08333.46317-1.47727s.74963-.59091 1.32254-.59091h16.42859c.4836 0 .9021.17803 1.2556.53409.3534.35606.5301.78409.5301 1.28409z" fill="#000"/></svg>

<svg width="24" height="24" viewBox="0 0 24 24" fill="none" xmlns="http://www.w3.org/2000/svg">
<path d="M22 9.15909V18.1818C22 18.6818 21.8251 19.1098 21.4754 19.4659C21.1257 19.822 20.7054 20 20.2143 20H3.78571C3.29464 20 2.87426 19.822 2.52455 19.4659C2.17485 19.1098 2 18.6818 2 18.1818V9.15909C2.32738 9.5303 2.70312 9.85985 3.12723 10.1477C5.82068 12.0114 7.66964 13.3182 8.67411 14.0682C9.09821 14.3864 9.44234 14.6345 9.70647 14.8125C9.97061 14.9905 10.3222 15.1723 10.7612 15.358C11.2001 15.5436 11.6094 15.6364 11.9888 15.6364H12.0112C12.3906 15.6364 12.7999 15.5436 13.2388 15.358C13.6778 15.1723 14.0294 14.9905 14.2935 14.8125C14.5577 14.6345 14.9018 14.3864 15.3259 14.0682C16.5908 13.1364 18.4435 11.8295 20.8839 10.1477C21.308 9.85227 21.6801 9.52273 22 9.15909ZM22 5.81818C22 6.41667 21.8177 6.98864 21.4531 7.53409C21.0885 8.07955 20.6347 8.54545 20.0915 8.93182C17.2939 10.9091 15.5528 12.1402 14.8683 12.625C14.7939 12.678 14.6358 12.7936 14.394 12.9716C14.1522 13.1496 13.9513 13.2936 13.7913 13.4034C13.6313 13.5133 13.4379 13.6364 13.2109 13.7727C12.984 13.9091 12.7701 14.0114 12.5692 14.0795C12.3683 14.1477 12.1823 14.1818 12.0112 14.1818H11.9888C11.8177 14.1818 11.6317 14.1477 11.4308 14.0795C11.2299 14.0114 11.016 13.9091 10.7891 13.7727C10.5621 13.6364 10.3687 13.5133 10.2087 13.4034C10.0487 13.2936 9.84784 13.1496 9.60603 12.9716C9.36421 12.7936 9.2061 12.678 9.1317 12.625C8.45461 12.1402 7.47991 11.4489 6.20759 10.5511C4.93527 9.65341 4.17262 9.11364 3.91964 8.93182C3.45833 8.61364 3.02307 8.17614 2.61384 7.61932C2.20461 7.0625 2 6.54545 2 6.06818C2 5.47727 2.15439 4.98485 2.46317 4.59091C2.77195 4.19697 3.2128 4 3.78571 4H20.2143C20.6979 4 21.1164 4.17803 21.4699 4.53409C21.8233 4.89015 22 5.31818 22 5.81818Z" fill="black"/>
</svg>
